X: 22352
T: La-Va
R: mazurka
M: 3/4
K: Cmajor
E>F|"C" G2 E2 c2|"G" B4 D>E|"G7"F2 D2 A2|"C" G4 E>F|"C" G2 E2 c2|"Dm" d4 d>c|"G7"B>A G2 B2|"C"c4 E>F|
"C" G2 E2 c2|"G" B4 D>E|"G7" F2 D2 A2|"C" G4 E>F|"C" G2 E2 c2|"Dm" d4 d>c|"G7" B>A G2 B2|"C" c4 c2|
"G7" B>A F2 A2|"C" A>G E2 A2|"G7" G>F D2 A2|"C" G4 c2|"G7" B>A F2 A2|"C" A>G E2 G>G|"G7" G2 A2 B2|"C" c4 c2|
"G7" B>A F2 A2|"C" A>G E2 A2|"G7" G>F D2 A2|"C" G4 c2|"G7" B>A F2 A2|"C" A>G E2 G>G|"G7" G2 A2 B2|"C" c4 E>F|
"C" G2 E2 c2|"G" B4 D>E|"G7" F2 D2 A2|"C" G4 E>F|"C" G2 E2 c2|"Dm" d4 d>c|"G7" B>A G2 B2|"C" c4 E>F|
"C" G2 E2 c2|"G" B4 D>E|"G7" F2 D2 A2|"C" G4 E>F|"C" G2 E2 c2|"Dm" d4 d>c|"G7" B>A G2 B2|"C" c4 G>c|
"C" e>f e2 G>c|"C" e>f e2 G>c|"C" e>f e2 g2|"G" d4 G>B|"G" d>e d2 G>B|"G" d>e d2 G>B|"G7" d2 f2 e2|"C" c4 G>c|
"C" e>f e2 G>c|"C" e>f e2 G>c|"C" e>f e2 g2|"G" d4 d2|"G" g>g g2 d2|"G" g>g g2 ^f>g|"G7" b>a g>f e>d|"C" c4:|

